content/blogs/regnskap/hva-er-varige-driftsmidler/fremtidige-teknologiske-trender.svg

<svg xmlns="http://www.w3.org/2000/svg" viewBox="0 0 800 600"><defs><linearGradient id="a" x1="0%" x2="100%" y1="0%" y2="100%"><stop offset="0%" style="stop-color:#667eea;stop-opacity:1"/><stop offset="100%" style="stop-color:#764ba2;stop-opacity:1"/></linearGradient><linearGradient id="d" x1="0%" x2="100%" y1="0%" y2="100%"><stop offset="0%" style="stop-color:#56ab2f;stop-opacity:1"/><stop offset="100%" style="stop-color:#a8e6cf;stop-opacity:1"/></linearGradient><pattern id="c" width="40" height="40" patternUnits="userSpaceOnUse"><path fill="#f8f9fa" d="M0 0h40v40H0z"/><path stroke="#e9ecef" d="M0 20h40M20 0v40"/><circle cx="20" cy="20" r="3" fill="#667eea"/></pattern><filter id="b"><feDropShadow dx="3" dy="3" flood-color="#000" flood-opacity=".3" stdDeviation="2"/></filter></defs><path fill="#f8f9fa" d="M0 0h800v600H0z"/><text x="400" y="40" fill="#2c3e50" font-family="Arial, sans-serif" font-size="24" font-weight="bold" text-anchor="middle">
    Fremtidige Teknologiske Trender
  </text><text x="400" y="65" fill="#7f8c8d" font-family="Arial, sans-serif" font-size="16" text-anchor="middle">
    Varige Driftsmidler i Transformasjon
  </text><rect width="320" height="440" x="50" y="100" fill="url(#a)" filter="url(#b)" rx="15"/><text x="210" y="130" fill="#fff" font-family="Arial, sans-serif" font-size="18" font-weight="bold" text-anchor="middle">
    Automatisering og Robotisering
  </text><g transform="translate(80 150)"><rect width="40" height="60" y="20" fill="#34495e" rx="5"/><rect width="20" height="10" x="10" y="15" fill="#2c3e50" rx="2"/><circle cx="5" cy="25" r="3" fill="#e74c3c"/><circle cx="35" cy="25" r="3" fill="#e74c3c"/><path fill="#3498db" d="M15 35h10l5 10H10Z"/><path stroke="#2c3e50" stroke-width="2" d="M20 45v10"/><circle cx="20" cy="60" r="5" fill="#95a5a6"/><text x="20" y="95" fill="#fff" font-family="Arial, sans-serif" font-size="10" text-anchor="middle">
      Industriroboter
    </text></g><g transform="translate(180 150)"><circle cx="20" cy="20" r="15" fill="#f39c12"/><circle cx="15" cy="15" r="2" fill="#2c3e50"/><circle cx="25" cy="15" r="2" fill="#2c3e50"/><path fill="none" stroke="#2c3e50" stroke-width="2" d="M12 25q8 5 16 0"/><rect width="20" height="30" x="10" y="35" fill="#e67e22" rx="5"/><rect width="30" height="5" x="5" y="40" fill="#d35400" rx="2"/><circle cx="35" cy="45" r="8" fill="#3498db"/><text x="20" y="95" fill="#fff" font-family="Arial, sans-serif" font-size="10" text-anchor="middle">
      Cobots
    </text></g><g transform="translate(120 250)"><rect width="60" height="40" fill="url(#c)" rx="5"/><circle cx="30" cy="20" r="12" fill="#9b59b6"/><text x="30" y="25" fill="#fff" font-family="Arial, sans-serif" font-size="12" font-weight="bold" text-anchor="middle">AI</text><path fill="none" stroke="#667eea" stroke-width="2" d="m10 10 10 10-10 10m40-20L40 20l10 10"/><text x="30" y="60" fill="#fff" font-family="Arial, sans-serif" font-size="10" text-anchor="middle">
      AI-styring
    </text></g><g transform="translate(80 350)"><rect width="80" height="30" y="20" fill="#3498db" rx="15"/><circle cx="15" cy="55" r="8" fill="#2c3e50"/><circle cx="65" cy="55" r="8" fill="#2c3e50"/><rect width="60" height="15" x="10" y="15" fill="#5dade2" rx="5"/><circle cx="25" cy="22" r="3" fill="#f1c40f"/><circle cx="55" cy="22" r="3" fill="#f1c40f"/><path fill="none" stroke="#ecf0f1" stroke-width="2" d="M30 35q10 5 20 0"/><text x="40" y="85" fill="#fff" font-family="Arial, sans-serif" font-size="10" text-anchor="middle">
      Autonom Transport
    </text></g><rect width="320" height="440" x="430" y="100" fill="url(#d)" filter="url(#b)" rx="15"/><text x="590" y="130" fill="#fff" font-family="Arial, sans-serif" font-size="18" font-weight="bold" text-anchor="middle">
    Bærekraftige Teknologier
  </text><g transform="translate(460 150)"><rect width="50" height="30" fill="#2c3e50" rx="3"/><rect width="46" height="26" x="2" y="2" fill="#34495e" rx="2"/><g fill="#3498db"><rect width="8" height="8" x="5" y="5" rx="1"/><rect width="8" height="8" x="15" y="5" rx="1"/><rect width="8" height="8" x="25" y="5" rx="1"/><rect width="8" height="8" x="35" y="5" rx="1"/><rect width="8" height="8" x="5" y="15" rx="1"/><rect width="8" height="8" x="15" y="15" rx="1"/><rect width="8" height="8" x="25" y="15" rx="1"/><rect width="8" height="8" x="35" y="15" rx="1"/></g><path fill="#f1c40f" d="m35 30 10 10-10 10-10-10Z"/><text x="25" y="70" fill="#fff" font-family="Arial, sans-serif" font-size="10" text-anchor="middle">
      Fornybar Energi
    </text></g><g transform="translate(580 150)"><path fill="#95a5a6" d="M18 20h4v40h-4z"/><circle cx="20" cy="20" r="3" fill="#7f8c8d"/><path fill="#ecf0f1" d="m20 20 10-10-5 15ZM20 20 10 30l15-5Z"/><path fill="#ecf0f1" d="M20 20V5l-5 20Z"/><text x="20" y="80" fill="#fff" font-family="Arial, sans-serif" font-size="10" text-anchor="middle">
      Vindkraft
    </text></g><g transform="translate(480 250)"><rect width="70" height="25" y="20" fill="#27ae60" rx="12"/><circle cx="15" cy="50" r="6" fill="#2c3e50"/><circle cx="55" cy="50" r="6" fill="#2c3e50"/><rect width="50" height="12" x="10" y="15" fill="#2ecc71" rx="6"/><circle cx="20" cy="21" r="2" fill="#f1c40f"/><circle cx="50" cy="21" r="2" fill="#f1c40f"/><path fill="none" stroke="#ecf0f1" stroke-width="2" d="m25 35 10-5 10 5"/><text x="35" y="75" fill="#fff" font-family="Arial, sans-serif" font-size="10" text-anchor="middle">
      Grønn Transport
    </text></g><g transform="translate(540 350)"><circle cx="20" cy="20" r="18" fill="none" stroke="#2ecc71" stroke-width="3"/><path fill="none" stroke="#2ecc71" stroke-width="2" d="m8 12 4-4 4 4m-4-4v8M32 28l-4 4-4-4m4 4v-8M12 32l4-4 4 4m-4-4v8"/><text x="20" y="60" fill="#fff" font-family="Arial, sans-serif" font-size="10" text-anchor="middle">
      Sirkulærøkonomi
    </text></g><g transform="translate(460 350)"><circle cx="20" cy="20" r="15" fill="#f39c12"/><path fill="#f1c40f" d="m12 20 8-8v4l8-8-8 20v-4l-8 8Z"/><text x="20" y="55" fill="#fff" font-family="Arial, sans-serif" font-size="10" text-anchor="middle">
      Energieffektivitet
    </text></g><path stroke="#95a5a6" stroke-dasharray="5,5" stroke-width="2" d="M400 100v440"/><text x="400" y="570" fill="#7f8c8d" font-family="Arial, sans-serif" font-size="14" font-weight="bold" text-anchor="middle">
    Fremtiden for Varige Driftsmidler
  </text><circle cx="400" cy="200" r="8" fill="#e74c3c"/><circle cx="400" cy="300" r="8" fill="#f39c12"/><circle cx="400" cy="400" r="8" fill="#2ecc71"/><text x="420" y="205" fill="#7f8c8d" font-family="Arial, sans-serif" font-size="12">2025</text><text x="420" y="305" fill="#7f8c8d" font-family="Arial, sans-serif" font-size="12">2030</text><text x="420" y="405" fill="#7f8c8d" font-family="Arial, sans-serif" font-size="12">2035</text></svg>

<svg viewBox="0 0 800 600" xmlns="http://www.w3.org/2000/svg">
  <defs>
    <linearGradient id="techGradient" x1="0%" y1="0%" x2="100%" y2="100%">
      <stop offset="0%" style="stop-color:#667eea;stop-opacity:1" />
      <stop offset="100%" style="stop-color:#764ba2;stop-opacity:1" />
    </linearGradient>
    <linearGradient id="sustainableGradient" x1="0%" y1="0%" x2="100%" y2="100%">
      <stop offset="0%" style="stop-color:#56ab2f;stop-opacity:1" />
      <stop offset="100%" style="stop-color:#a8e6cf;stop-opacity:1" />
    </linearGradient>
    <filter id="shadow">
      <feDropShadow dx="3" dy="3" stdDeviation="2" flood-color="#000" flood-opacity="0.3"/>
    </filter>
    <pattern id="circuitPattern" patternUnits="userSpaceOnUse" width="40" height="40">
      <rect width="40" height="40" fill="#f8f9fa"/>
      <path d="M0 20h40M20 0v40" stroke="#e9ecef" stroke-width="1"/>
      <circle cx="20" cy="20" r="3" fill="#667eea"/>
    </pattern>
  </defs>
  

  <rect width="800" height="600" fill="#f8f9fa"/>
  

  <text x="400" y="40" text-anchor="middle" font-family="Arial, sans-serif" font-size="24" font-weight="bold" fill="#2c3e50">
    Fremtidige Teknologiske Trender
  </text>
  <text x="400" y="65" text-anchor="middle" font-family="Arial, sans-serif" font-size="16" fill="#7f8c8d">
    Varige Driftsmidler i Transformasjon
  </text>
  

  <rect x="50" y="100" width="320" height="440" fill="url(#techGradient)" rx="15" filter="url(#shadow)"/>
  <text x="210" y="130" text-anchor="middle" font-family="Arial, sans-serif" font-size="18" font-weight="bold" fill="white">
    Automatisering og Robotisering
  </text>
  

  <g transform="translate(80, 150)">
    <rect x="0" y="20" width="40" height="60" fill="#34495e" rx="5"/>
    <rect x="10" y="15" width="20" height="10" fill="#2c3e50" rx="2"/>
    <circle cx="5" cy="25" r="3" fill="#e74c3c"/>
    <circle cx="35" cy="25" r="3" fill="#e74c3c"/>
    <path d="M15 35 L25 35 L30 45 L10 45 Z" fill="#3498db"/>
    <line x1="20" y1="45" x2="20" y2="55" stroke="#2c3e50" stroke-width="2"/>
    <circle cx="20" cy="60" r="5" fill="#95a5a6"/>
    <text x="20" y="95" text-anchor="middle" font-family="Arial, sans-serif" font-size="10" fill="white">
      Industriroboter
    </text>
  </g>
  

  <g transform="translate(180, 150)">
    <circle cx="20" cy="20" r="15" fill="#f39c12"/>
    <circle cx="15" cy="15" r="2" fill="#2c3e50"/>
    <circle cx="25" cy="15" r="2" fill="#2c3e50"/>
    <path d="M12 25 Q20 30 28 25" stroke="#2c3e50" stroke-width="2" fill="none"/>
    <rect x="10" y="35" width="20" height="30" fill="#e67e22" rx="5"/>
    <rect x="5" y="40" width="30" height="5" fill="#d35400" rx="2"/>
    <circle cx="35" cy="45" r="8" fill="#3498db"/>
    <text x="20" y="95" text-anchor="middle" font-family="Arial, sans-serif" font-size="10" fill="white">
      Cobots
    </text>
  </g>
  

  <g transform="translate(120, 250)">
    <rect x="0" y="0" width="60" height="40" fill="url(#circuitPattern)" rx="5"/>
    <circle cx="30" cy="20" r="12" fill="#9b59b6"/>
    <text x="30" y="25" text-anchor="middle" font-family="Arial, sans-serif" font-size="12" font-weight="bold" fill="white">AI</text>
    <path d="M10 10 L20 20 L10 30 M50 10 L40 20 L50 30" stroke="#667eea" stroke-width="2" fill="none"/>
    <text x="30" y="60" text-anchor="middle" font-family="Arial, sans-serif" font-size="10" fill="white">
      AI-styring
    </text>
  </g>
  

  <g transform="translate(80, 350)">
    <rect x="0" y="20" width="80" height="30" fill="#3498db" rx="15"/>
    <circle cx="15" cy="55" r="8" fill="#2c3e50"/>
    <circle cx="65" cy="55" r="8" fill="#2c3e50"/>
    <rect x="10" y="15" width="60" height="15" fill="#5dade2" rx="5"/>
    <circle cx="25" cy="22" r="3" fill="#f1c40f"/>
    <circle cx="55" cy="22" r="3" fill="#f1c40f"/>
    <path d="M30 35 Q40 40 50 35" stroke="#ecf0f1" stroke-width="2" fill="none"/>
    <text x="40" y="85" text-anchor="middle" font-family="Arial, sans-serif" font-size="10" fill="white">
      Autonom Transport
    </text>
  </g>
  

  <rect x="430" y="100" width="320" height="440" fill="url(#sustainableGradient)" rx="15" filter="url(#shadow)"/>
  <text x="590" y="130" text-anchor="middle" font-family="Arial, sans-serif" font-size="18" font-weight="bold" fill="white">
    Bærekraftige Teknologier
  </text>
  

  <g transform="translate(460, 150)">
    <rect x="0" y="0" width="50" height="30" fill="#2c3e50" rx="3"/>
    <rect x="2" y="2" width="46" height="26" fill="#34495e" rx="2"/>
    <g fill="#3498db">
      <rect x="5" y="5" width="8" height="8" rx="1"/>
      <rect x="15" y="5" width="8" height="8" rx="1"/>
      <rect x="25" y="5" width="8" height="8" rx="1"/>
      <rect x="35" y="5" width="8" height="8" rx="1"/>
      <rect x="5" y="15" width="8" height="8" rx="1"/>
      <rect x="15" y="15" width="8" height="8" rx="1"/>
      <rect x="25" y="15" width="8" height="8" rx="1"/>
      <rect x="35" y="15" width="8" height="8" rx="1"/>
    </g>
    <path d="M35 30 L45 40 L35 50 L25 40 Z" fill="#f1c40f"/>
    <text x="25" y="70" text-anchor="middle" font-family="Arial, sans-serif" font-size="10" fill="white">
      Fornybar Energi
    </text>
  </g>
  

  <g transform="translate(580, 150)">
    <rect x="18" y="20" width="4" height="40" fill="#95a5a6"/>
    <circle cx="20" cy="20" r="3" fill="#7f8c8d"/>
    <path d="M20 20 L30 10 L25 25 Z" fill="#ecf0f1"/>
    <path d="M20 20 L10 30 L25 25 Z" fill="#ecf0f1"/>
    <path d="M20 20 L20 5 L15 25 Z" fill="#ecf0f1"/>
    <text x="20" y="80" text-anchor="middle" font-family="Arial, sans-serif" font-size="10" fill="white">
      Vindkraft
    </text>
  </g>
  

  <g transform="translate(480, 250)">
    <rect x="0" y="20" width="70" height="25" fill="#27ae60" rx="12"/>
    <circle cx="15" cy="50" r="6" fill="#2c3e50"/>
    <circle cx="55" cy="50" r="6" fill="#2c3e50"/>
    <rect x="10" y="15" width="50" height="12" fill="#2ecc71" rx="6"/>
    <circle cx="20" cy="21" r="2" fill="#f1c40f"/>
    <circle cx="50" cy="21" r="2" fill="#f1c40f"/>
    <path d="M25 35 L35 30 L45 35" stroke="#ecf0f1" stroke-width="2" fill="none"/>
    <text x="35" y="75" text-anchor="middle" font-family="Arial, sans-serif" font-size="10" fill="white">
      Grønn Transport
    </text>
  </g>
  

  <g transform="translate(540, 350)">
    <circle cx="20" cy="20" r="18" fill="none" stroke="#2ecc71" stroke-width="3"/>
    <path d="M8 12 L12 8 L16 12 M12 8 L12 16" stroke="#2ecc71" stroke-width="2" fill="none"/>
    <path d="M32 28 L28 32 L24 28 M28 32 L28 24" stroke="#2ecc71" stroke-width="2" fill="none"/>
    <path d="M12 32 L16 28 L20 32 M16 28 L16 36" stroke="#2ecc71" stroke-width="2" fill="none"/>
    <text x="20" y="60" text-anchor="middle" font-family="Arial, sans-serif" font-size="10" fill="white">
      Sirkulærøkonomi
    </text>
  </g>
  

  <g transform="translate(460, 350)">
    <circle cx="20" cy="20" r="15" fill="#f39c12"/>
    <path d="M12 20 L20 12 L20 16 L28 8 L20 28 L20 24 L12 32 Z" fill="#f1c40f"/>
    <text x="20" y="55" text-anchor="middle" font-family="Arial, sans-serif" font-size="10" fill="white">
      Energieffektivitet
    </text>
  </g>
  

  <defs>
    <marker id="arrowhead" markerWidth="10" markerHeight="7" refX="9" refY="3.5" orient="auto">
      <polygon points="0 0, 10 3.5, 0 7" fill="#95a5a6"/>
    </marker>
  </defs>
  

  <line x1="400" y1="100" x2="400" y2="540" stroke="#95a5a6" stroke-width="2" stroke-dasharray="5,5"/>
  <text x="400" y="570" text-anchor="middle" font-family="Arial, sans-serif" font-size="14" font-weight="bold" fill="#7f8c8d">
    Fremtiden for Varige Driftsmidler
  </text>
  

  <circle cx="400" cy="200" r="8" fill="#e74c3c"/>
  <circle cx="400" cy="300" r="8" fill="#f39c12"/>
  <circle cx="400" cy="400" r="8" fill="#2ecc71"/>
  
  <text x="420" y="205" font-family="Arial, sans-serif" font-size="12" fill="#7f8c8d">2025</text>
  <text x="420" y="305" font-family="Arial, sans-serif" font-size="12" fill="#7f8c8d">2030</text>
  <text x="420" y="405" font-family="Arial, sans-serif" font-size="12" fill="#7f8c8d">2035</text>
</svg>
